X:44
T:Ah,Sure a Pair. JClw.44
M:6/8
L:1/8
Q:3/8=80
S:J.Clews MS,Stoke-upon-Tern,Shrops.1832
N:Ah sure, but it’s not all there!
N:JC runs out of space on final page.
N:but completes the tune on the back cover!NeilB
A:N. Shropshire
Z:Neil Brookes 2006
K:G
G|G>AG B>cB|ded {ga}b2g|gdB c>de|dgB B>AG|!
G>AG d>ed|g>ag d’2b|dgd d>fg|d>ed c2G|!
B2cD2g|b>ag adc|B2b a2g|f2g adc|!
d2c’ Hb2a|bc’d’ bag efg|ded BG|]
